X: 110
T: Pollonesse #110
M: 3/4
L: 1/16
R: Pollonesse
K: D
Q: 100
|:d2f2 f2a2 a2gf| g2b2 b2ab a2g2| f2gf e2fe d2ed|c2c2 A8 :|
|:d2d2 e2ge f2a2|d2d2e2ge f4|d2d2 e2ge f2a2|d2d2e2ge f4|
f2ef g2B2 c2d2| e2e2d8:|
